X:250
T: Corn Boy
N: a/k/a "Johnny McGreevy's Favorite"
M: 4/4
L: 1/8
S: Luke O'Malley Volume 1
Z: B.Black
R: reel
K: D
D2 FA d2 cA | BEED EFGB | Adde dcAd |cAGE EDCA, |
DEFA (3dcB cA | BEED EFGB | A2 de dcAd |cAGE ED D2 :|
aged cded | =cBcd efge | aged cded | cAGE ED D2 |
ed (3efg agec|dcAB =c2 dc|(3ABA GE DFAd|cAGE EDCA, :|
